X: 1
T: Reel Saint-Antoine
O: Quebec
M: 4/4
K: A
e2 | "A"a2aa- aece | aaa a2 ece | agfe ""dcBA | "E7"GABc defg |
     "A"a2aa- aece |  aaa a2 ece | agfe dcBA | "E7"GABG "A"A2 :||
|: AB | "A"c2cc- cBce | "D"dcBA "Bm"GABc | "E7"d2dd- dcdf | edcB "A"A2 AB | 
        "A"c2cc- cBce | "D"dcBA "Bm"GABc | "D"defg "A"afed | "E7"cABG "A"A2 :|

%%newpage
%% header "Randy+Will+Noel - Flying home to Shelley /Star of Munster 		$P"

